SVG_Azure_Grouped/Compute/Blockchain DevKit.svg

<?xml version="1.0" encoding="UTF-8" standalone="no"?>
<!-- Generated by Microsoft Visio, SVG Export Blockchain DevKit.svg Page-1 -->

<svg
   xmlns:dc="http://purl.org/dc/elements/1.1/"
   xmlns:cc="http://creativecommons.org/ns#"
   xmlns:rdf="http://www.w3.org/1999/02/22-rdf-syntax-ns#"
   xmlns:svg="http://www.w3.org/2000/svg"
   xmlns="http://www.w3.org/2000/svg"
   xmlns:sodipodi="http://sodipodi.sourceforge.net/DTD/sodipodi-0.dtd"
   xmlns:inkscape="http://www.inkscape.org/namespaces/inkscape"
   width="0.78740436in"
   height="0.78734839in"
   viewBox="0 0 56.693112 56.689225"
   xml:space="preserve"
   class="st6"
   version="1.1"
   id="svg48"
   sodipodi:docname="Blockchain DevKit.svg"
   style="font-size:12px;overflow:visible;color-interpolation-filters:sRGB;fill:none;fill-rule:evenodd;stroke-linecap:square;stroke-miterlimit:3"
   inkscape:version="0.92.5 (2060ec1f9f, 2020-04-08)"><metadata
   id="metadata52"><rdf:RDF><cc:Work
       rdf:about=""><dc:format>image/svg+xml</dc:format><dc:type
         rdf:resource="http://purl.org/dc/dcmitype/StillImage" /></cc:Work></rdf:RDF></metadata><sodipodi:namedview
   pagecolor="#ffffff"
   bordercolor="#666666"
   borderopacity="1"
   objecttolerance="10"
   gridtolerance="10"
   guidetolerance="10"
   inkscape:pageopacity="0"
   inkscape:pageshadow="2"
   inkscape:window-width="640"
   inkscape:window-height="480"
   id="namedview50"
   showgrid="false"
   inkscape:zoom="1.8365233"
   inkscape:cx="37.795184"
   inkscape:cy="18.893507"
   inkscape:window-x="0"
   inkscape:window-y="0"
   inkscape:window-maximized="0"
   inkscape:current-layer="svg48" />
	<style
   type="text/css"
   id="style2">
	<![CDATA[
		.st1 {fill:#773adc;stroke:none;stroke-linecap:butt;stroke-width:0.75}
		.st2 {fill:#b796f9;stroke:none;stroke-linecap:butt;stroke-width:0.75}
		.st3 {fill:#a67af4;stroke:none;stroke-linecap:butt;stroke-width:0.75}
		.st4 {fill:#198ab3;stroke:none;stroke-linecap:butt;stroke-width:0.75}
		.st5 {fill:url(#grad0-15);stroke:none;stroke-linecap:butt;stroke-width:0.75}
		.st6 {fill:none;fill-rule:evenodd;font-size:12px;overflow:visible;stroke-linecap:square;stroke-miterlimit:3}
	]]>
	</style>

	<defs
   id="Patterns_And_Gradients">
		<linearGradient
   id="grad0-15"
   x1="-0.11408211"
   y1="66.521129"
   x2="27.982583"
   y2="66.521129"
   gradientTransform="scale(0.98172715,1.018613)"
   gradientUnits="userSpaceOnUse">
			<stop
   offset="0"
   stop-color="#32d4f5"
   stop-opacity="1"
   id="stop4" />
			<stop
   offset="1"
   stop-color="#198ab3"
   stop-opacity="1"
   id="stop6" />
		</linearGradient>
	</defs>
	<g
   id="g46"
   transform="translate(-5.6693772,-5.66994)">
		<title
   id="title10">Page-1</title>
		<g
   id="group11649-1"
   transform="translate(5.66929,-34.0157)">
			<title
   id="title12">Blockchain DevKit.11649</title>
			<g
   id="group11650-2">
				<title
   id="title14">Sheet.11650</title>
				<g
   id="group11651-3"
   transform="translate(0,-3.84406)">
					<title
   id="title16">Sheet.11651</title>
					<g
   id="shape11652-4"
   transform="translate(22.7928)">
						<title
   id="title18">Sheet.11652</title>
						<path
   d="M 22.8,56.78 V 83.13 L 0,96.38 v -26.4 z"
   class="st1"
   id="path20"
   inkscape:connector-curvature="0"
   style="fill:#773adc;stroke:none;stroke-width:0.75;stroke-linecap:butt" />
					</g>
					<g
   id="shape11653-6"
   transform="translate(0,-26.3603)">
						<title
   id="title23">Sheet.11653</title>
						<path
   d="M 45.59,83.14 22.8,96.38 0,83.13 22.8,69.89 Z"
   class="st2"
   id="path25"
   inkscape:connector-curvature="0"
   style="fill:#b796f9;stroke:none;stroke-width:0.75;stroke-linecap:butt" />
					</g>
					<g
   id="shape11654-8">
						<title
   id="title28">Sheet.11654</title>
						<path
   d="M 22.79,70.02 V 96.38 L 0,83.13 V 56.77 Z"
   class="st3"
   id="path30"
   inkscape:connector-curvature="0"
   style="fill:#a67af4;stroke:none;stroke-width:0.75;stroke-linecap:butt" />
					</g>
				</g>
				<g
   id="shape11655-10"
   transform="translate(28.6463)">
					<title
   id="title34">b27129ef-d9eb-4579-8bb0-024170d</title>
					<path
   d="m 23.78,73.26 0.14,0.13 a 0.251488,0.249892 -180 0 0 0.330906,0 L 25.57,72.28 28.01,68.3 A 0.254797,0.25318 -180 0 0 27.9736,67.990923 L 27.59,67.61 A 0.254797,0.25318 -180 0 0 27.259094,67.58041 L 23.44,70.11 22.36,71.5 a 0.248179,0.246604 -180 0 0 0.02316,0.328805 L 22.53,71.98 14.59,80.1 12.95,78.41 11.14,80.28 a 3.2528,3.23215 0 0 1 -0.85,2.59 2.86895,2.85074 0 0 1 -2.48,0.9 l -7.67,7.85 a 0.502977,0.499784 -180 0 0 0,0.697067 L 3.92,96.22 a 0.502977,0.499784 -180 0 0 0.727993,0 L 12.26,88.36 a 3.11051,3.09077 0 0 1 0.91,-2.59 2.87888,2.8606 0 0 1 2.48,-0.9 L 17.47,83 15.83,81.32 Z"
   class="st4"
   id="path36"
   inkscape:connector-curvature="0"
   style="fill:#198ab3;stroke:none;stroke-width:0.75;stroke-linecap:butt" />
				</g>
				<g
   id="shape11656-12"
   transform="translate(28.9311,-0.0389779)">
					<title
   id="title39">Sheet.11656</title>
					<path
   d="M 26.62,91.15 24.73,89.22 12.69,76.86 12.09,76.22 A 6.71739,6.67474 -180 0 0 10.52,69.65 6.22765,6.18811 -180 0 0 4.92,67.86 0.251488,0.249892 -180 0 0 4.784329,68.284159 L 7.94,71.47 a 0.254797,0.25318 0 0 1 0.066181,0.23674 L 7.16,74.98 A 0.254797,0.25318 0 0 1 6.981311,75.160843 L 3.76,76.05 A 0.254797,0.25318 0 0 1 3.511821,75.980951 L 0.43,72.81 A 0.254797,0.25318 -180 0 0 -0.003487,72.941522 6.61812,6.5761 -180 0 0 1.74,78.69 6.12507,6.08618 -180 0 0 7.86,80.32 l 0.12,0.11 0.66,0.7 13.8,14.35 a 2.85572,2.83759 -180 0 0 4.04,0.13 c 0.05,-0.04 0.09,-0.08 0.14,-0.13 a 3.00793,2.98884 -180 0 0 0.85,-2.17 3.2892,3.26832 -180 0 0 -0.85,-2.16 z"
   class="st5"
   id="path41"
   inkscape:connector-curvature="0"
   style="fill:url(#grad0-15);stroke:none;stroke-width:0.75;stroke-linecap:butt" />
				</g>
			</g>
		</g>
	</g>
</svg>

<?xml version="1.0" encoding="UTF-8" standalone="no"?>
<!DOCTYPE svg PUBLIC "-//W3C//DTD SVG 1.1//EN" "http://www.w3.org/Graphics/SVG/1.1/DTD/svg11.dtd">
<!-- Generated by Microsoft Visio, SVG Export Blockchain DevKit.svg Page-1 -->
<svg xmlns="http://www.w3.org/2000/svg" xmlns:xlink="http://www.w3.org/1999/xlink" xmlns:ev="http://www.w3.org/2001/xml-events"
		width="0.944882in" height="1.33858in" viewBox="0 0 68.0315 96.378" xml:space="preserve" color-interpolation-filters="sRGB"
		class="st6">
	<style type="text/css">
	<![CDATA[
		.st1 {fill:#773adc;stroke:none;stroke-linecap:butt;stroke-width:0.75}
		.st2 {fill:#b796f9;stroke:none;stroke-linecap:butt;stroke-width:0.75}
		.st3 {fill:#a67af4;stroke:none;stroke-linecap:butt;stroke-width:0.75}
		.st4 {fill:#198ab3;stroke:none;stroke-linecap:butt;stroke-width:0.75}
		.st5 {fill:url(#grad0-15);stroke:none;stroke-linecap:butt;stroke-width:0.75}
		.st6 {fill:none;fill-rule:evenodd;font-size:12px;overflow:visible;stroke-linecap:square;stroke-miterlimit:3}
	]]>
	</style>

	<defs id="Patterns_And_Gradients">
		<linearGradient id="grad0-15" x1="0" y1="0" x2="1" y2="0" gradientTransform="rotate(90 0.5 0.5)">
			<stop offset="0" stop-color="#32d4f5" stop-opacity="1"/>
			<stop offset="1" stop-color="#198ab3" stop-opacity="1"/>
		</linearGradient>
	</defs>
	<g>
		<title>Page-1</title>
		<g id="group11370-1" transform="translate(5.66929,-34.0157)">
			<title>Blockchain DevKit.11370</title>
			<g id="group11371-2">
				<title>Sheet.11371</title>
				<g id="group11372-3" transform="translate(0,-3.84406)">
					<title>Sheet.11372</title>
					<g id="shape11373-4" transform="translate(22.7928,2.70006E-13)">
						<title>Sheet.11373</title>
						<path d="M22.8 56.78 L22.8 83.13 L0 96.38 L0 69.98 L22.8 56.78 Z" class="st1"/>
					</g>
					<g id="shape11374-6" transform="translate(0,-26.3603)">
						<title>Sheet.11374</title>
						<path d="M45.59 83.14 L22.8 96.38 L0 83.13 L22.8 69.89 L45.59 83.14 Z" class="st2"/>
					</g>
					<g id="shape11375-8">
						<title>Sheet.11375</title>
						<path d="M22.79 70.02 L22.79 96.38 L0 83.13 L0 56.77 L22.79 70.02 Z" class="st3"/>
					</g>
				</g>
				<g id="shape11376-10" transform="translate(28.6463,0)">
					<title>b27129ef-d9eb-4579-8bb0-024170d</title>
					<path d="M23.78 73.26 L23.92 73.39 a0.251488 0.249892 -180 0 0 0.330906 -4.26326E-14 L25.57 72.28 L28.01 68.3
								 a0.254797 0.25318 -180 0 0 -0.0363996 -0.309077 L27.59 67.61 a0.254797 0.25318 -180 0 0 -0.330906
								 -0.0295925 L23.44 70.11 L22.36 71.5 a0.248179 0.246604 -180 0 0 0.0231634 0.328805 L22.53 71.98
								 L14.59 80.1 L12.95 78.41 L11.14 80.28 A3.2528 3.23215 0 0 1 10.29 82.87 A2.86895 2.85074 0 0 1 7.81
								 83.77 L0.14 91.62 a0.502977 0.499784 -180 0 0 -5.38458E-15 0.697067 L3.92 96.22 a0.502977 0.499784
								 -180 0 0 0.727993 0 L12.26 88.36 A3.11051 3.09077 0 0 1 13.17 85.77 A2.87888 2.8606 0 0 1 15.65
								 84.87 L17.47 83 L15.83 81.32 L23.78 73.26 Z" class="st4"/>
				</g>
				<g id="shape11377-12" transform="translate(28.9311,-0.0389779)">
					<title>Sheet.11377</title>
					<path d="M26.62 91.15 L24.73 89.22 L12.69 76.86 L12.09 76.22 A6.71739 6.67474 -180 0 0 10.52 69.65 A6.22765 6.18811
								 -180 0 0 4.92 67.86 a0.251488 0.249892 -180 0 0 -0.135671 0.424159 L7.94 71.47 a0.254797 0.25318
								 0 0 1 0.0661812 0.23674 L7.16 74.98 a0.254797 0.25318 0 0 1 -0.178689 0.180843 L3.76 76.05 a0.254797
								 0.25318 0 0 1 -0.248179 -0.0690491 L0.43 72.81 a0.254797 0.25318 -180 0 0 -0.433487 0.131522 A6.61812
								 6.5761 -180 0 0 1.74 78.69 A6.12507 6.08618 -180 0 0 7.86 80.32 L7.98 80.43 L8.64 81.13 L22.44 95.48
								 A2.85572 2.83759 -180 0 0 26.48 95.61 C26.53 95.57 26.57 95.53 26.62 95.48 A3.00793 2.98884 -180
								 0 0 27.47 93.31 A3.2892 3.26832 -180 0 0 26.62 91.15 Z" class="st5"/>
				</g>
			</g>
		</g>
	</g>
</svg>
